storage/app/icons/phosphoricons/fill/lock-simple-open-fill.svg

<svg xmlns="http://www.w3.org/2000/svg" fill="currentColor" viewBox="0 0 256 256"><path d="M224 96v112a16 16 0 0 1-16 16H48a16 16 0 0 1-16-16V96a16 16 0 0 1 16-16h32V56a48.05 48.05 0 0 1 48-48c23.2 0 43.32 16.15 47.84 38.41a8 8 0 0 1-15.68 3.18C157.2 35 143.37 24 128 24a32 32 0 0 0-32 32v24h112a16 16 0 0 1 16 16"/></svg>

<svg xmlns="http://www.w3.org/2000/svg" viewBox="0 0 256 256" fill="currentColor"><path d="M224,96V208a16,16,0,0,1-16,16H48a16,16,0,0,1-16-16V96A16,16,0,0,1,48,80H80V56A48.05,48.05,0,0,1,128,8c23.2,0,43.32,16.15,47.84,38.41a8,8,0,0,1-15.68,3.18C157.2,35,143.37,24,128,24A32,32,0,0,0,96,56V80H208A16,16,0,0,1,224,96Z"/></svg>
